app/client/src/assets/icons/blueprintjs/16px/unarchive.svg

<?xml version="1.0" encoding="UTF-8"?>
<svg viewBox="0 0 16 16" version="1.1" xmlns="http://www.w3.org/2000/svg" xmlns:xlink="http://www.w3.org/1999/xlink">
    <title>Unarchive</title>
    <g stroke="none" stroke-width="1" fill="none" fill-rule="evenodd">
        <path d="M13.381966,0 C13.7607381,1.04064373e-15 14.1070012,0.214002376 14.2763932,0.552786405 L16,4 L16,15 C16,15.5522847 15.5522847,16 15,16 L1,16 C0.44771525,16 6.76353751e-17,15.5522847 0,15 L0,4 L1.7236068,0.552786405 C1.89299881,0.214002376 2.23926193,2.91623903e-16 2.61803399,0 L13.381966,0 Z M8,6 C7.72,6 7.47,6.11 7.29,6.29 L7.29,6.29 L5.29,8.29 L5.20601852,8.38564815 C5.07638889,8.55416667 5,8.76666667 5,9 C5,9.55 5.45,10 6,10 C6.28,10 6.53,9.89 6.71,9.71 L6.71,9.71 L7,9.41 L7,12 L7.0067602,12.116199 C7.06479592,12.6119898 7.48928571,13 8,13 C8.55,13 9,12.55 9,12 L9,12 L9,9.41 L9.29,9.7 L9.37131195,9.77644315 C9.54204082,9.91918367 9.76,10 10,10 C10.55,10 11,9.55 11,9 C11,8.72 10.89,8.47 10.71,8.29 L10.71,8.29 L8.71,6.29 L8.61435185,6.20601852 C8.44583333,6.07638889 8.23333333,6 8,6 Z M13,2 L3,2 L2,4 L14,4 L13,2 Z" id="Combined-Shape" fill="#000000"></path>
    </g>
</svg>

<svg xmlns="http://www.w3.org/2000/svg" viewBox="0 0 16 16"><path fill-rule="evenodd" d="M13.382 0a1 1 0 0 1 .894.553L16 4v11a1 1 0 0 1-1 1H1a1 1 0 0 1-1-1V4L1.724.553A1 1 0 0 1 2.618 0h10.764ZM8 6c-.28 0-.53.11-.71.29l-2 2-.084.096A1.003 1.003 0 0 0 6.71 9.71l.29-.3V12l.007.116c.058.496.482.884.993.884.55 0 1-.45 1-1V9.41l.29.29.081.076A.97.97 0 0 0 10 10a1.003 1.003 0 0 0 .71-1.71l-2-2-.096-.084A1.002 1.002 0 0 0 8 6Zm5-4H3L2 4h12l-1-2Z"/></svg>
